static/img/article-icons/nuxt.svg

<svg xmlns="http://www.w3.org/2000/svg" xmlns:xlink="http://www.w3.org/1999/xlink" style="isolation:isolate" viewBox="561.141 5.93 44.719 33.93" width="44.719" height="33.93"><g><path d=" M 592.093 35 L 579.77 35 L 567.447 35 C 566.155 35 565.63 34.091 566.277 32.972 L 572.438 22.3 L 578.6 11.628 C 579.246 10.509 580.295 10.509 580.941 11.628 L 587.102 22.3 L 593.264 32.972 C 593.91 34.091 593.386 35 592.093 35 Z " fill="none"  stroke-width="3.24" stroke="rgb(0,198,143)" stroke-linejoin="miter" stroke-linecap="square" stroke-miterlimit="3"/><path d=" M 599.553 35 L 589.661 35 L 579.769 35 C 578.477 35 577.952 34.092 578.599 32.973 L 583.544 24.415 L 588.49 15.857 C 589.136 14.738 590.186 14.738 590.832 15.857 L 595.778 24.415 L 600.723 32.973 C 601.37 34.092 600.845 35 599.553 35 Z " fill="none"  stroke-width="3.24" stroke="rgb(7,136,118)" stroke-linejoin="miter" stroke-linecap="square" stroke-miterlimit="3"/><path d=" M 592.089 34.939 L 585.904 34.969 L 579.719 35 C 578.441 35.006 577.927 34.116 578.571 33.012 L 581.69 27.671 L 585.976 20.331 L 590.19 27.629 L 593.246 32.923 C 593.885 34.029 593.366 34.933 592.089 34.939 Z " fill="none"  stroke-width="3.24" stroke="rgb(43,72,94)" stroke-linejoin="miter" stroke-linecap="square" stroke-miterlimit="3"/></g></svg>

<svg xmlns="http://www.w3.org/2000/svg" style="isolation:isolate" viewBox="561.14 5.93 44.72 33.93" width="44.72" height="33.93"><g fill="none" stroke-width="3.24" stroke-linecap="square" stroke-miterlimit="3"><path d="M592.1 35h-24.65c-1.3 0-1.82-.9-1.17-2.03l6.16-10.67 6.16-10.67c.65-1.12 1.7-1.12 2.34 0l6.16 10.67 6.16 10.67c.65 1.12.13 2.03-1.17 2.03z" stroke="#00C68F"/><path d="M599.55 35h-19.79c-1.28 0-1.8-.9-1.16-2.03l4.94-8.55 4.95-8.56c.65-1.12 1.7-1.12 2.34 0l4.95 8.55 4.94 8.56c.65 1.12.13 2.03-1.17 2.03z" stroke="#078876"/><path d="M592.09 34.94l-6.19.03-6.18.03c-1.28 0-1.8-.88-1.15-1.99l3.12-5.34 4.29-7.34 4.21 7.3 3.06 5.3c.63 1.1.12 2-1.16 2z" stroke="#2B485E"/></g></svg>
